Adwaita++/actions/22/document-import.svg

<svg height="22" viewBox="0 0 22 22" width="22" xmlns="http://www.w3.org/2000/svg">
  <path d="m3 1.0097656s-1 0-1 1v8.9960934 3.003907c0 1 1 1 1 1h10s1 0 1-1v-4.003907l-2 .003907v3h-8v-9.9960941h8v2.9960937l2-.0039062v-3.9960938c0-1-1-1-1-1zm8 3.9980469-4.5 3 4.5 2.9999995v-1.9999995h4v-2h-4z" fill="#444" transform="translate(3 3)"/>
</svg>

<svg xmlns="http://www.w3.org/2000/svg" width="22" height="22" viewBox="0 0 22 22">
 <defs>
  <style id="current-color-scheme" type="text/css">
   .ColorScheme-Text { color:#444444; } .ColorScheme-Highlight { color:#4285f4; }
  </style>
 </defs>
 <path style="fill:currentColor" class="ColorScheme-Text" d="M 3 1.0097656 C 3 1.0097656 2 1.0097656 2 2.0097656 L 2 11.005859 L 2 14.009766 C 2 15.009766 3 15.009766 3 15.009766 L 13 15.009766 C 13 15.009766 14 15.009766 14 14.009766 L 14 10.005859 L 12 10.009766 L 12 13.009766 L 4 13.009766 L 4 3.0136719 L 12 3.0136719 L 12 6.0097656 L 14 6.0058594 L 14 2.0097656 C 14 1.0097656 13 1.0097656 13 1.0097656 L 3 1.0097656 z M 11 5.0078125 L 6.5 8.0078125 L 11 11.007812 L 11 9.0078125 L 15 9.0078125 L 15 7.0078125 L 11 7.0078125 L 11 5.0078125 z" transform="translate(3 3)"/>
</svg>
